asset/money.svg

<svg width="55" height="56" viewBox="0 0 55 56" fill="none" xmlns="http://www.w3.org/2000/svg">
<path d="M23.9286 32.5357V30.6071H26.5V24.8214H26.4598C26.1384 25.3237 25.8371 25.5446 25.3549 25.9665L23.808 24.3594L26.7812 21.6071H29.0714V30.6071H31.6429V32.5357H23.9286ZM34.2143 27.3928C34.2143 23.7366 32.0045 19.0357 27.7857 19.0357C23.567 19.0357 21.3571 23.7366 21.3571 27.3928C21.3571 31.0491 23.567 35.75 27.7857 35.75C32.0045 35.75 34.2143 31.0491 34.2143 27.3928ZM44.5 32.5357C41.6674 32.5357 39.3571 34.846 39.3571 37.6786H16.2143C16.2143 34.846 13.904 32.5357 11.0714 32.5357V22.25C13.904 22.25 16.2143 19.9397 16.2143 17.1071H39.3571C39.3571 19.9397 41.6674 22.25 44.5 22.25V32.5357ZM47.0714 15.8214C47.0714 15.1183 46.4888 14.5357 45.7857 14.5357H9.78571C9.08259 14.5357 8.5 15.1183 8.5 15.8214V38.9643C8.5 39.6674 9.08259 40.25 9.78571 40.25H45.7857C46.4888 40.25 47.0714 39.6674 47.0714 38.9643V15.8214Z" fill="white"/>
</svg>

<svg width="55" height="56" fill="none" xmlns="http://www.w3.org/2000/svg"><path d="M23.929 32.536v-1.929H26.5v-5.786h-.04c-.322.503-.623.724-1.105 1.145l-1.547-1.607 2.973-2.752h2.29v9h2.572v1.929h-7.714zm10.285-5.143c0-3.656-2.21-8.357-6.428-8.357-4.219 0-6.429 4.7-6.429 8.357 0 3.656 2.21 8.357 6.429 8.357 4.218 0 6.428-4.7 6.428-8.357zM44.5 32.536a5.153 5.153 0 0 0-5.143 5.143H16.214a5.153 5.153 0 0 0-5.143-5.143V22.25a5.153 5.153 0 0 0 5.143-5.143h23.143A5.153 5.153 0 0 0 44.5 22.25v10.286zm2.571-16.715c0-.703-.582-1.285-1.285-1.285h-36c-.703 0-1.286.582-1.286 1.285v23.143c0 .703.583 1.286 1.286 1.286h36c.703 0 1.285-.583 1.285-1.286V15.821z" fill="#fff"/></svg>
